symbols/web/queue_play_next/materialsymbolsoutlined/queue_play_next_wght500_20px.svg

<svg xmlns="http://www.w3.org/2000/svg" height="20" width="20"><path d="m16.312 18.75-1.27-1.271 2.562-2.583-2.562-2.563 1.27-1.271 3.834 3.855Zm-9.791-1.146v-1.666H3.5q-.833 0-1.406-.584-.573-.583-.573-1.396V4.25q0-.812.573-1.396.573-.583 1.406-.583h13.042q.812 0 1.396.583.583.584.583 1.396v5.688h-1.979V4.25H3.5v9.708h10.688v1.98h-.542v1.666Zm2.583-5.146h1.834v-2.416h2.416V8.208h-2.416V5.792H9.104v2.416H6.688v1.834h2.416Zm.917-3.354Z"/></svg>

<svg xmlns="http://www.w3.org/2000/svg" height="20" width="20"><path d="M16.312 18.75 15.042 17.479 17.604 14.896 15.042 12.333 16.312 11.062 20.146 14.917ZM6.521 17.604V15.938H3.5Q2.667 15.938 2.094 15.354Q1.521 14.771 1.521 13.958V4.25Q1.521 3.438 2.094 2.854Q2.667 2.271 3.5 2.271H16.542Q17.354 2.271 17.938 2.854Q18.521 3.438 18.521 4.25V9.938H16.542V4.25Q16.542 4.25 16.542 4.25Q16.542 4.25 16.542 4.25H3.5Q3.5 4.25 3.5 4.25Q3.5 4.25 3.5 4.25V13.958Q3.5 13.958 3.5 13.958Q3.5 13.958 3.5 13.958H14.188V15.938H13.646V17.604ZM9.104 12.458H10.938V10.042H13.354V8.208H10.938V5.792H9.104V8.208H6.688V10.042H9.104ZM10.021 9.104Q10.021 9.104 10.021 9.104Q10.021 9.104 10.021 9.104Q10.021 9.104 10.021 9.104Q10.021 9.104 10.021 9.104Q10.021 9.104 10.021 9.104Q10.021 9.104 10.021 9.104Z"/></svg>
